svgs/sharp-regular/mountain-city.svg

<svg xmlns="http://www.w3.org/2000/svg" viewBox="0 0 640 512"><!--! Font Awesome Pro 6.6.0 by @fontawesome - https://fontawesome.com License - https://fontawesome.com/license (Commercial License) Copyright 2024 Fonticons, Inc. --><path d="M312 0L288 0l0 24 0 120.4 48 76.8L336 48l128 0 0 168 0 24 24 0 56 0 48 0 0 240 0 24 48 0 0-24 0-264 0-24-24 0-24 0 0-72 0-24-48 0 0 24 0 72-32 0 0-168 0-24L488 0 312 0zM432 336l0-64-64 0 0 .4L407.7 336l24.3 0zM368 80l0 64 64 0 0-64-64 0zm64 96l-64 0 0 64 64 0 0-64zm128 96l-64 0 0 64 64 0 0-64zm-64 96l0 64 64 0 0-64-64 0zM480 512l-30-48L268.3 173.3 240 128l-28.3 45.3L30 464 0 512l56.6 0 366.8 0 56.6 0zm-86.6-48L86.6 464l60.8-97.3L173.3 399l18.3 22.9 18.8-22.4L250.2 352l73.2 0 70 112zM240 218.6L293.4 304 239 304l-11.2 0-7.2 8.6-28.2 33.6-18.1-22.6 65.6-105z"/></svg>

<svg xmlns="http://www.w3.org/2000/svg" viewBox="0 0 640 512"><!--! Font Awesome Pro 6.4.2 by @fontawesome - https://fontawesome.com License - https://fontawesome.com/license (Commercial License) Copyright 2023 Fonticons, Inc. --><path d="M312 0H288V24 144.4l48 76.8V48H464V216v24h24 56 48V480v24h48V480 216 192H616 592V120 96H544v24 72H512V24 0H488 312zM432 336V272H368v.4L407.7 336H432zM368 80v64h64V80H368zm64 96H368v64h64V176zm128 96H496v64h64V272zm-64 96v64h64V368H496zM480 512l-30-48L268.3 173.3 240 128l-28.3 45.3L30 464 0 512H56.6 423.4 480zm-86.6-48H86.6l60.8-97.3L173.3 399l18.3 22.9 18.8-22.4L250.2 352h73.2l70 112zM240 218.6L293.4 304H239 227.8l-7.2 8.6-28.2 33.6-18.1-22.6 65.6-105z"/></svg>
